X:1
T:Then sayde the chefe priest
T:Christopher Tye
T:Source : Actes of the Apostles---Chapter VII---1553. Editor : André Vierendeels (11/01/17).
T:-natural
T:Then sayde the chefe priest
T:©
T:©
T:©
C:Christopher Tye
Z:©
%%score [ 1 [ 2 3 ] 4 ]
L:1/8
Q:1/4=118
M:4/4
K:Bb
V:1 treble nm="Soprano" snm="S"
V:2 treble-8 nm="Tenor 1" snm="T 1"
V:3 treble-8 nm="Tenor 2" snm="T 2"
V:4 bass nm="Bass" snm="B"
V:1
 z2 G2 d3 c | B2 A2 G2 G2 | ^F2 G2 F2 G2 | E2 F2 D4 | z2 F2 G2 G2 | A2 A2 B2 G2 | A2 B2 A2 G2 | %7
w: Than sayde the|chefe priest is it|so, ye men and|eke bre- therne:|and all ye|fa- thers herke un-|to, my words and|
 G2 ^F2 G4 | z2 G2 G3 G | F2 F2 E3 E | D2 z2 d2 d2- | dc B2 A2 A2 | z2 A2 AF B2 | G2 c3 A d2- | %14
w: then dis- cerne,|there dyd ap-|peare to A- bra-|ham, the God|_ of great glo- rye,|be- fore that he|dwelt in Lar- ran,|
 dc B2 A2 G2 | ^F2 G3 F/=E/ F2 | G8 |] %17
w: _ in _ Me- so-|po- ta- * * *|mye.|
V:2
 z2 d2 d2 d2 | d2 f2 d2 c2 | d2 d2 d2 B2 | c2 A2 B4 | z2 d2 B2 e2 | c2 f2 d2 =e2 | f2 f2 f2 d2 | %7
w: Then sayde the|chefe priest is it|so, ye men and|eke bre- terne:|and all ye|fa- thers herke un-|to, my words and|
 d3 c =B4 | z2 d2 d3 d | d2 d2 c3 c | =B4 z2 d2 | dfdg ^f4 | z4 d2 d2 | B2 e2 c2 f2 | d2 g2 c4 | %15
w: then dis- cerne,|there dyd ap-|peare to A- bra-|ham, the|God of great glo- rye,|be- fore|that he dwelt in|Lar- ran in|
 d2 e2 d3 c | =B8 |] %17
w: Me- so- po- ta-|mye.|
V:3
 z2 B2 G3 A | B2 c2 B2 G2 | A2 B2 A2 G2 | G2 F2 F4 | z2 B2 G2 c2 | A2 d2 B2 B2 | c2 d2 c2 B2 | %7
w: Then sayde the|chefe priest is it|so, ye men and|eke bre- terne:|and all ye|fa- thers herke un-|to, my words and|
 AG A2 G4 | z2 B2 B3 B | A2 B2 G3 G |"^b" G2 B2 G3 A | B2 c2 d2 A2 | A2 F2 B2 G2 | G4 A4 | %14
w: then dis- * cerne,|there dyd ap-|peare to A- bra-|ham, the God of|great glo- rye be-|fore that be dwelt|in Lar-|
 B4 z2 G2 | A2 c2 A2 A2 | G8 |] %17
w: ran, in|Me- so- po- ta-|mye.|
V:4
 z2 G,2 B,3 F, | G,2 F,2 G,2 E,2 | D,2 G,,2 D,2 E,2 | C,2 D,2 B,,4 | z2 B,,2 E,2 C,2 | %5
w: Then sayde the|chefe priest is it|son ye men and|eke bre- terne:|and all ye|
 F,2 D,2 G,2 G,2 | F,2 B,2 F,2 G,2 | D,2 D,2 G,,4 | z2 G,,2 G,,3 G,, | D,2 B,,2 C,3 C, | %10
w: fa- thers herke un-|tto, my words and|then dis- cerne,|there dyd ap-|peare to A- bra-|
 G,,2 G,2 B,3 F, | G,2 A,2 D,4 | z2 D,2 D,2 B,,2 | E,2 C,2 F,2 D,2 | G,4 z2 E,2 | D,2 C,2 D,2 D,2 | %16
w: ham, the God of|great glo- rye|be- fore that|he dwelt in Lar-|ran, in|Me- so- po- ta-|
 G,,8 |] %17
w: mye.|

